!!!SOCIAL_FUNCTION:	cheyenne war song
!!!PDT:	1936
!!!OTL: No_4_We_Cannot_Turn_Back.krn
!!!REG: Oklahoma and Montana
!!!LANG: Tone
!!!LING_GROUP: Algonquin
**kern
*staff1
=1-
=
*clefF4
*k[b-e-a-]
*M2/4
16g\LK
8e-\
16g\Jk
16g\LK
8e-\
16c\Jk
=2
8c\L
8c\J
4c\
=3
8c\L
8c\J
8.c\L
16c\Jk
=4
4.c\
8r
=5
16e-\LK
8c\
16e-\Jk
16e-\LK
8c\
16c\Jk
=6
8B-\L
8B-\J
4G\
=7
8G\L
8G\J
8.G\L
16G\Jk
=8
4G\
8G\
8r
=9
16c\LK
8B-\
16c\Jk
16c\LK
8.B-\J
=10
8G\L
8G\J
8G\L
8F\J
=11
8G\L
8G\J
8.B-\L
16G\Jk
=12
8G\L
8G\J
8G\L
8F\J
=13
8G\L
8G\J
8.G\L
16G\Jk
=14
4G\
8G\
8r
==:|!
*-
